;FLAVOR:Marlin
;TIME:2120
;Filament used: 0.405316m
;Layer height: 0.1
;Generated with Cura_SteamEngine 3.3.0
M190 S50
M104 S210
M109 S210
M82 ;absolute extrusion mode
G21 ;metric values
G90 ;absolute positioning
M82 ;set extruder to absolute mode
M107 ;start with the fan off
G28 X0 Y0 ;move X/Y to min endstops
G28 Z0 ;move Z to min endstops
G1 Z15.0 F9000 ;move the platform down 15mm
G92 E0 ;zero the extruded length
G1 F200 E3 ;extrude 3mm of feed stock
G92 E0 ;zero the extruded length again
G1 F9000
;Put printing message on LCD screen
M117 Printing...
G92 E0
G1 F3600 E-2
;LAYER_COUNT:17
;LAYER:0
M107
G0 F3600 X65.191 Y90.789 Z0.1
;TYPE:SKIRT
G1 F3600 E0
G1 F1200 X65.684 Y90.514 E0.00939
G1 X66.212 Y90.31 E0.0188
G1 X66.763 Y90.183 E0.0282
G1 X67.385 Y90.134 E0.03858
G1 X122.616 Y90.135 E0.95708
G1 X123.18 Y90.175 E0.96648
G1 X123.733 Y90.294 E0.97589
G1 X124.263 Y90.49 E0.98528
G1 X124.76 Y90.758 E0.99467
G1 X125.215 Y91.094 E1.00408
G1 X125.618 Y91.491 E1.01349
G1 X125.96 Y91.941 E1.02289
G1 X126.236 Y92.434 E1.03228
G1 X126.44 Y92.962 E1.0417
G1 X126.567 Y93.512 E1.05108
G1 X126.616 Y94.135 E1.06148
G1 X126.615 Y125.866 E1.58916
G1 X126.575 Y126.43 E1.59857
G1 X126.456 Y126.983 E1.60797
G1 X126.26 Y127.513 E1.61737
G1 X125.992 Y128.01 E1.62676
G1 X125.656 Y128.465 E1.63617
G1 X125.259 Y128.868 E1.64558
G1 X124.809 Y129.211 E1.65499
G1 X124.316 Y129.486 E1.66437
G1 X123.788 Y129.69 E1.67379
G1 X123.237 Y129.817 E1.68319
G1 X122.615 Y129.866 E1.69357
G1 X67.384 Y129.865 E2.61206
G1 X66.82 Y129.825 E2.62146
G1 X66.267 Y129.706 E2.63087
G1 X65.737 Y129.51 E2.64027
G1 X65.24 Y129.242 E2.64966
G1 X64.785 Y128.906 E2.65906
G1 X64.382 Y128.509 E2.66847
G1 X64.04 Y128.059 E2.67787
G1 X63.764 Y127.566 E2.68727
G1 X63.56 Y127.038 E2.69668
G1 X63.433 Y126.488 E2.70607
G1 X63.384 Y125.865 E2.71646
G1 X63.385 Y94.134 E3.24415
G1 X63.425 Y93.57 E3.25355
G1 X63.544 Y93.017 E3.26296
G1 X63.74 Y92.487 E3.27236
G1 X64.008 Y91.99 E3.28175
G1 X64.344 Y91.535 E3.29115
G1 X64.741 Y91.132 E3.30056
G1 X65.191 Y90.789 E3.30997
G0 F3600 X65.574 Y91.022
G1 F1200 X66.057 Y90.788 E3.3189
G1 X66.568 Y90.628 E3.3278
G1 X67.098 Y90.545 E3.33672
G1 X67.385 Y90.534 E3.3415
G1 X122.616 Y90.535 E4.25999
G1 X123.151 Y90.575 E4.26892
G1 X123.674 Y90.694 E4.27783
G1 X124.173 Y90.889 E4.28674
G1 X124.638 Y91.157 E4.29567
G1 X125.058 Y91.49 E4.30458
G1 X125.424 Y91.882 E4.3135
G1 X125.727 Y92.324 E4.32241
G1 X125.962 Y92.807 E4.33135
G1 X126.122 Y93.318 E4.34025
G1 X126.205 Y93.848 E4.34917
G1 X126.216 Y94.135 E4.35395
G1 X126.215 Y125.866 E4.88164
G1 X126.175 Y126.401 E4.89056
G1 X126.056 Y126.924 E4.89948
G1 X125.861 Y127.423 E4.90839
G1 X125.593 Y127.888 E4.91731
G1 X125.26 Y128.308 E4.92623
G1 X124.868 Y128.674 E4.93515
G1 X124.426 Y128.978 E4.94407
G1 X123.943 Y129.212 E4.95299
G1 X123.432 Y129.372 E4.9619
G1 X122.902 Y129.455 E4.97082
G1 X122.615 Y129.466 E4.9756
G1 X67.384 Y129.465 E5.89409
G1 X66.849 Y129.425 E5.90301
G1 X66.326 Y129.306 E5.91193
G1 X65.827 Y129.111 E5.92084
G1 X65.362 Y128.843 E5.92977
G1 X64.942 Y128.51 E5.93868
G1 X64.576 Y128.118 E5.9476
G1 X64.273 Y127.676 E5.95651
G1 X64.038 Y127.193 E5.96544
G1 X63.878 Y126.682 E5.97435
G1 X63.795 Y126.152 E5.98327
G1 X63.784 Y125.865 E5.98805
G1 X63.785 Y94.134 E6.51574
G1 X63.825 Y93.599 E6.52466
G1 X63.944 Y93.076 E6.53358
G1 X64.139 Y92.577 E6.54249
G1 X64.407 Y92.112 E6.55141
G1 X64.74 Y91.692 E6.56033
G1 X65.132 Y91.326 E6.56924
G1 X65.574 Y91.022 E6.57817
G0 F3600 X65.521 Y91.533
G1 F1200 X65.954 Y91.272 E6.58657
G1 X66.422 Y91.082 E6.59497
G1 X66.915 Y90.969 E6.60338
G1 X67.385 Y90.934 E6.61122
G1 X122.616 Y90.935 E7.52972
G1 X123.12 Y90.975 E7.53813
G1 X123.611 Y91.094 E7.54653
G1 X124.078 Y91.289 E7.55494
G1 X124.508 Y91.554 E7.56334
G1 X124.891 Y91.884 E7.57175
G1 X125.217 Y92.271 E7.58017
G1 X125.478 Y92.704 E7.58857
G1 X125.668 Y93.172 E7.59697
G1 X125.781 Y93.665 E7.60538
G1 X125.816 Y94.135 E7.61322
G1 X125.815 Y125.866 E8.14091
G1 X125.775 Y126.37 E8.14932
G1 X125.656 Y126.861 E8.15772
G1 X125.461 Y127.328 E8.16614
G1 X125.196 Y127.758 E8.17454
G1 X124.865 Y128.141 E8.18296
G1 X124.479 Y128.467 E8.19136
G1 X124.046 Y128.728 E8.19977
G1 X123.578 Y128.918 E8.20816
G1 X123.085 Y129.031 E8.21658
G1 X122.615 Y129.066 E8.22441
G1 X67.384 Y129.065 E9.14291
G1 X66.88 Y129.025 E9.15132
G1 X66.389 Y128.906 E9.15972
G1 X65.922 Y128.711 E9.16813
G1 X65.492 Y128.446 E9.17653
G1 X65.109 Y128.116 E9.18494
G1 X64.783 Y127.729 E9.19336
G1 X64.522 Y127.296 E9.20177
G1 X64.332 Y126.828 E9.21016
G1 X64.219 Y126.335 E9.21858
G1 X64.184 Y125.865 E9.22641
G1 X64.185 Y94.134 E9.7541
G1 X64.225 Y93.63 E9.76251
G1 X64.344 Y93.139 E9.77091
G1 X64.539 Y92.672 E9.77933
G1 X64.804 Y92.242 E9.78773
G1 X65.135 Y91.859 E9.79615
G1 X65.521 Y91.533 E9.80455
G1 F3600 E7.80455
G0 F3600 X72.925 Y94.84
;TYPE:WALL-OUTER
G1 F3600 E9.80455
G1 F1200 X72.925 Y94.841 E9.80457
G1 X72.925 Y95.323 E9.81258
G1 X72.584 Y94.981 E9.8169
G1 X72.368 Y94.765 E9.82198
G1 X68.132 Y94.765 E9.89243
G1 X67.916 Y94.981 E9.89751
G1 X67.575 Y95.323 E9.90554
G1 X67.575 Y94.841 E9.90985
G1 X67.575 Y94.84 E9.90987
G1 X67.575 Y94.325 E9.91843
G1 X72.925 Y94.325 E10.0074
G1 X72.925 Y94.84 E10.01597
G0 F3600 X72.925 Y94.841
G0 X72.925 Y95.04
G0 X72.593 Y94.655
G1 F1200 X72.199 Y94.544 E10.01785
G1 X71.916 Y94.544 E10.01844
G1 X71.633 Y94.544 E10.01903
G1 X71.351 Y94.544 E10.01962
G1 X71.068 Y94.544 E10.02021
G1 X70.785 Y94.544 E10.02079
G1 X70.502 Y94.544 E10.02138
G1 X70.219 Y94.544 E10.02197
G1 X69.936 Y94.544 E10.02256
G1 X69.654 Y94.544 E10.02314
G1 X69.371 Y94.544 E10.02373
G1 X69.088 Y94.544 E10.02432
G1 X68.805 Y94.544 E10.02491
G1 X68.522 Y94.544 E10.0255
G1 X68.239 Y94.544 E10.02609
G1 X67.974 Y94.561 E10.02687
G1 X67.822 Y94.692 E10.02799
G1 F3600 E8.02799
G0 F3600 X70.825 Y97.575
G1 F3600 E10.02799
G1 F1200 X76.175 Y97.575 E10.11696
G1 X76.175 Y98.09 E10.12552
G1 X76.175 Y98.091 E10.12554
G1 X76.175 Y98.573 E10.13356
G1 X75.834 Y98.231 E10.13788
G1 X75.618 Y98.015 E10.14296
G1 X71.382 Y98.015 E10.2134
G1 X71.166 Y98.231 E10.21848
G1 X70.825 Y98.573 E10.22651
G1 X70.825 Y98.091 E10.23082
G1 X70.825 Y98.09 E10.23084
G1 X70.825 Y97.575 E10.2394
G0 F3600 X71.025 Y97.575
G0 X71.224 Y97.811
G1 F1200 X71.072 Y97.942 E10.24052
G0 F3600 X71.489 Y97.794
G1 F1200 X71.772 Y97.794 E10.24111
G1 X72.055 Y97.794 E10.2417
G1 X72.338 Y97.794 E10.24229
G1 X72.621 Y97.794 E10.24288
G1 X72.903 Y97.794 E10.24346
G1 X73.186 Y97.794 E10.24405
G1 X73.469 Y97.794 E10.24464
G1 X73.752 Y97.794 E10.24523
G1 X74.035 Y97.794 E10.24581
G1 X74.318 Y97.794 E10.2464
G1 X74.6 Y97.794 E10.24699
G1 X74.883 Y97.794 E10.24758
G1 X75.166 Y97.794 E10.24817
G1 X75.449 Y97.794 E10.24875
G1 X75.843 Y97.905 E10.25064
G1 F3600 E8.25064
G0 F3600 X67.575 Y99.16
G1 F3600 E10.25064
G1 F1200 X67.575 Y99.159 E10.25066
G1 X67.575 Y98.677 E10.25868
G1 X67.916 Y99.019 E10.263
G1 X68.132 Y99.235 E10.26808
G1 X72.368 Y99.235 E10.33852
G1 X72.584 Y99.019 E10.3436
G1 X72.925 Y98.677 E10.35163
G1 X72.925 Y99.159 E10.35594
G1 X72.925 Y99.16 E10.35596
G1 X72.925 Y99.675 E10.36452
G1 X67.575 Y99.675 E10.4535
G1 X67.575 Y99.16 E10.46206
G0 F3600 X67.575 Y99.159
G0 X67.575 Y98.96
G0 X67.932 Y99.328
G1 F1200 X68.341 Y99.454 E10.46411
G1 X68.624 Y99.454 E10.46469
G1 X68.907 Y99.454 E10.46528
G1 X69.189 Y99.454 E10.46587
G1 X69.472 Y99.454 E10.46646
G1 X69.755 Y99.454 E10.46705
G1 X70.038 Y99.454 E10.46763
G1 X70.321 Y99.454 E10.46822
G1 X70.604 Y99.454 E10.46881
G1 X70.886 Y99.454 E10.4694
G1 X71.169 Y99.454 E10.46998
G1 X71.452 Y99.454 E10.47057
G1 X71.735 Y99.454 E10.47116
G1 X72.018 Y99.454 E10.47175
G1 X72.301 Y99.454 E10.47234
G1 X72.556 Y99.426 E10.47325
G1 X72.687 Y99.274 E10.47437
G1 F3600 E8.47437
G0 F3600 X67.8 Y99.479
;TYPE:SKIN
G1 F3600 E10.47437
G1 F1200 X67.769 Y99.448 E10.47474
G1 F3600 E8.47474
G0 F3600 X72.925 Y101.823
;TYPE:WALL-OUTER
G1 F3600 E10.47474
G1 F1200 X72.584 Y101.481 E10.48277
G1 X72.368 Y101.265 E10.48785
G1 X68.132 Y101.265 E10.55829
G1 X67.916 Y101.481 E10.56337
G1 X67.575 Y101.823 E10.57141
G1 X67.575 Y101.341 E10.57572
G1 X67.575 Y101.34 E10.57573
G1 X67.575 Y100.825 E10.5843
G1 X72.925 Y100.825 E10.67327
G1 X72.925 Y101.34 E10.68183
G1 X72.925 Y101.341 E10.68185
G1 X72.925 Y101.823 E10.68616
G0 F3600 X72.784 Y101.682
G0 X72.591 Y101.158
G1 F1200 X72.193 Y101.043 E10.68807
G1 X71.911 Y101.043 E10.68865
G1 X71.628 Y101.043 E10.68922
G1 X71.345 Y101.043 E10.6898
G1 X71.062 Y101.043 E10.69038
G1 X70.779 Y101.043 E10.69095
G1 X70.496 Y101.043 E10.69153
G1 X70.214 Y101.043 E10.6921
G1 X69.931 Y101.043 E10.69268
G1 X69.648 Y101.043 E10.69326
G1 X69.365 Y101.043 E10.69383
G1 X69.082 Y101.043 E10.69441
G1 X68.799 Y101.043 E10.69499
G1 X68.516 Y101.043 E10.69556
G1 X68.234 Y101.043 E10.69614
G1 X67.97 Y101.063 E10.69694
G1 X67.821 Y101.196 E10.69806
G1 F3600 E8.69806
G0 F3600 X67.575 Y105.66
G1 F3600 E10.69806
G1 F1200 X67.575 Y105.659 E10.69808
G1 X67.575 Y105.177 E10.7061
G1 X67.916 Y105.519 E10.71042
G1 X68.132 Y105.735 E10.7155
G1 X72.368 Y105.735 E10.78594
G1 X72.584 Y105.519 E10.79102
G1 X72.925 Y105.177 E10.79905
G1 X72.925 Y105.659 E10.80336
G1 X72.925 Y105.66 E10.80338
G1 X72.925 Y106.175 E10.81194
G1 X67.575 Y106.175 E10.90091
G1 X67.575 Y105.66 E10.90948
G0 F3600 X67.575 Y105.659
G0 X67.575 Y105.46
G0 X67.928 Y105.829
G1 F1200 X68.335 Y105.954 E10.91153
G1 X68.618 Y105.954 E10.91212
G1 X68.901 Y105.954 E10.91271
G1 X69.184 Y105.954 E10.9133
G1 X69.467 Y105.954 E10.91389
G1 X69.75 Y105.954 E10.91447
G1 X70.033 Y105.954 E10.91506
G1 X70.315 Y105.954 E10.91565
G1 X70.598 Y105.954 E10.91624
G1 X70.881 Y105.954 E10.91683
G1 X71.164 Y105.954 E10.91741
G1 X71.447 Y105.954 E10.918
G1 X71.73 Y105.954 E10.91859
G1 X72.012 Y105.954 E10.91918
G1 X72.295 Y105.954 E10.91976
G1 X72.552 Y105.927 E10.92066
G1 X72.686 Y105.778 E10.92177
G1 F3600 E8.92177
G0 F3600 X75.618 Y104.515
G1 F3600 E10.92177
G1 F1200 X71.382 Y104.515 E10.99222
G1 X71.166 Y104.731 E10.9973
G1 X70.825 Y105.073 E11.00533
G1 X70.825 Y104.591 E11.00964
G1 X70.825 Y104.59 E11.00966
G1 X70.825 Y104.075 E11.01822
G1 X76.175 Y104.075 E11.10719
G1 X76.175 Y104.59 E11.11576
G1 X76.175 Y104.591 E11.11577
G1 X76.175 Y105.073 E11.12379
G1 X75.834 Y104.731 E11.12811
G1 X75.618 Y104.515 E11.13319
G0 F3600 X75.418 Y104.515
G0 X75.443 Y104.293
G1 F1200 X75.16 Y104.293 E11.13377
G1 X74.878 Y104.293 E11.13434
G1 X74.595 Y104.293 E11.13492
G1 X74.312 Y104.293 E11.13549
G1 X74.029 Y104.293 E11.13607
G1 X73.746 Y104.293 E11.13665
G1 X73.463 Y104.293 E11.13722
G1 X73.181 Y104.293 E11.1378
G1 X72.898 Y104.293 E11.13837
G1 X72.615 Y104.293 E11.13895
G1 X72.332 Y104.293 E11.13953
G1 X72.049 Y104.293 E11.1401
G1 X71.766 Y104.293 E11.14068
G1 X71.484 Y104.293 E11.14125
G1 X71.22 Y104.312 E11.14205
G1 X71.07 Y104.446 E11.14317
G1 F3600 E9.14317
G0 F3600 X75.702 Y104.269
;TYPE:SKIN
G1 F3600 E11.14317
G1 F1200 X75.98 Y104.547 E11.14644
G1 F3600 E9.14644
G0 F3600 X72.925 Y108.323
;TYPE:WALL-OUTER
G1 F3600 E11.14644
G1 F1200 X72.584 Y107.981 E11.15447
G1 X72.368 Y107.765 E11.15955
G1 X68.132 Y107.765 E11.22999
G1 X67.916 Y107.981 E11.23507
G1 X67.575 Y108.323 E11.2431
G1 X67.575 Y107.841 E11.24742
G1 X67.575 Y107.84 E11.24743
G1 X67.575 Y107.325 E11.256
G1 X72.925 Y107.325 E11.34497
G1 X72.925 Y107.84 E11.35353
G1 X72.925 Y107.841 E11.35355
G1 X72.925 Y108.323 E11.35786
G0 F3600 X72.784 Y108.182
G0 X72.588 Y107.66
G1 F1200 X72.188 Y107.544 E11.35982
G1 X71.905 Y107.544 E11.36041
G1 X71.623 Y107.544 E11.36099
G1 X71.34 Y107.544 E11.36158
G1 X71.057 Y107.544 E11.36217
G1 X70.774 Y107.544 E11.36276
G1 X70.491 Y107.544 E11.36334
G1 X70.208 Y107.544 E11.36393
G1 X69.926 Y107.544 E11.36452
G1 X69.643 Y107.544 E11.36511
G1 X69.36 Y107.544 E11.3657
G1 X69.077 Y107.544 E11.36628
G1 X68.794 Y107.544 E11.36687
G1 X68.511 Y107.544 E11.36746
G1 X68.228 Y107.544 E11.36805
G1 X67.966 Y107.564 E11.36887
G1 X67.819 Y107.7 E11.36998
G1 F3600 E9.36998
G0 F3600 X74.075 Y107.84
G1 F3600 E11.36998
G1 F1200 X74.075 Y107.325 E11.37855
G1 X79.425 Y107.325 E11.46752
G1 X79.425 Y107.84 E11.47608
G1 X79.425 Y107.841 E11.4761
G1 X79.425 Y108.323 E11.48412
G1 X79.084 Y107.981 E11.48844
G1 X78.868 Y107.765 E11.49352
G1 X74.632 Y107.765 E11.56396
G1 X74.416 Y107.981 E11.56904
G1 X74.075 Y108.323 E11.57707
G1 X74.075 Y107.841 E11.58138
G1 X74.075 Y107.84 E11.5814
G0 F3600 X74.075 Y107.64
G0 X74.32 Y107.696
G1 F1200 X74.47 Y107.562 E11.58252
G1 X74.734 Y107.543 E11.58331
G1 X75.016 Y107.543 E11.58389
G1 X75.299 Y107.543 E11.58446
G1 X75.582 Y107.543 E11.58504
G1 X75.865 Y107.543 E11.58562
G1 X76.148 Y107.543 E11.58619
G1 X76.431 Y107.543 E11.58677
G1 X76.713 Y107.543 E11.58734
G1 X76.996 Y107.543 E11.58792
G1 X77.279 Y107.543 E11.5885
G1 X77.562 Y107.543 E11.58907
G1 X77.845 Y107.543 E11.58965
G1 X78.128 Y107.543 E11.59023
G1 X78.411 Y107.543 E11.5908
G1 X78.693 Y107.543 E11.59138
G1 X79.09 Y107.658 E11.59329
G1 F3600 E9.59329
G0 F3600 X79.425 Y106.175
G1 F3600 E11.59329
G1 F1200 X74.075 Y106.175 E11.68226
G1 X74.075 Y105.66 E11.69082
G1 X74.075 Y105.659 E11.69084
G1 X74.075 Y105.177 E11.69885
G1 X74.416 Y105.519 E11.70317
G1 X74.632 Y105.735 E11.70825
G1 X78.868 Y105.735 E11.7787
G1 X79.084 Y105.519 E11.78378
G1 X79.425 Y105.177 E11.79181
G1 X79.425 Y105.659 E11.79612
G1 X79.425 Y105.66 E11.79614
G1 X79.425 Y106.175 E11.8047
G0 F3600 X79.225 Y106.175
G0 X79.055 Y105.926
G1 F1200 X79.187 Y105.774 E11.80582
G0 F3600 X78.801 Y105.954
G1 F1200 X78.518 Y105.954 E11.8064
G1 X78.235 Y105.954 E11.80699
G1 X77.952 Y105.954 E11.80758
G1 X77.669 Y105.954 E11.80817
G1 X77.386 Y105.954 E11.80876
G1 X77.104 Y105.954 E11.80934
G1 X76.821 Y105.954 E11.80993
G1 X76.538 Y105.954 E11.81052
G1 X76.255 Y105.954 E11.81111
G1 X75.972 Y105.954 E11.8117
G1 X75.689 Y105.954 E11.81228
G1 X75.407 Y105.954 E11.81287
G1 X75.124 Y105.954 E11.81346
G1 X74.841 Y105.954 E11.81405
G1 X74.432 Y105.828 E11.81611
G1 X74.284 Y105.963 E11.81807
G1 F3600 E9.81807
G0 F3600 X77.325 Y104.59
G1 F3600 E11.81807
G1 F1200 X77.325 Y104.075 E11.82663
G1 X82.675 Y104.075 E11.9156
G1 X82.675 Y104.59 E11.92417
G1 X82.675 Y104.591 E11.92418
G1 X82.675 Y105.073 E11.9322
G1 X82.334 Y104.731 E11.93652
G1 X82.118 Y104.515 E11.9416
G1 X77.882 Y104.515 E12.01205
G1 X77.666 Y104.731 E12.01713
G1 X77.325 Y105.073 E12.02516
G1 X77.325 Y104.591 E12.02947
G1 X77.325 Y104.59 E12.02948
G0 F3600 X77.325 Y104.39
G0 X77.572 Y104.442
G1 F1200 X77.724 Y104.311 E12.0306
G1 X77.989 Y104.293 E12.03139
G1 X78.272 Y104.293 E12.03196
G1 X78.555 Y104.293 E12.03254
G1 X78.837 Y104.293 E12.03311
G1 X79.12 Y104.293 E12.03369
G1 X79.403 Y104.293 E12.03427
G1 X79.686 Y104.293 E12.03484
G1 X79.969 Y104.293 E12.03542
G1 X80.252 Y104.293 E12.036
G1 X80.534 Y104.293 E12.03657
G1 X80.817 Y104.293 E12.03715
G1 X81.1 Y104.293 E12.03772
G1 X81.383 Y104.293 E12.0383
G1 X81.666 Y104.293 E12.03888
G1 X81.949 Y104.293 E12.03945
G1 X82.343 Y104.405 E12.04134
G1 F3600 E10.04134
G0 F3600 X82.334 Y102.269
G1 F3600 E12.04134
G1 F1200 X82.675 Y101.927 E12.04938
G1 X82.675 Y102.409 E12.05369
G1 X82.675 Y102.41 E12.0537
G1 X82.675 Y102.925 E12.06227
G1 X77.325 Y102.925 E12.15124
G1 X77.325 Y102.41 E12.1598
G1 X77.325 Y102.409 E12.15982
G1 X77.325 Y101.927 E12.16784
G1 X77.666 Y102.269 E12.17216
G1 X77.882 Y102.485 E12.17724
G1 X82.118 Y102.485 E12.24768
G1 X82.334 Y102.269 E12.25276
G0 F3600 X82.475 Y102.128
G0 X82.438 Y102.52
G1 F1200 X82.31 Y102.674 E12.25388
G1 X82.056 Y102.704 E12.2548
G1 X81.773 Y102.704 E12.25539
G1 X81.49 Y102.704 E12.25598
G1 X81.208 Y102.704 E12.25656
G1 X80.925 Y102.704 E12.25715
